X: 4335
M: 2/4
L: 1/8
K: G
|:!p!DG |\
d2 DA | e2 EA | f2 FA | g2 ::\
gf |\
c2 ed | B2 Bc | (AD) (dD) | dG gf |\
c2 ed | B2 Bc | (AD) da | g2 :|


